server/website/public/icons/base/insight.svg

<svg width="48" height="48" viewBox="0 0 48 48" fill="none" xmlns="http://www.w3.org/2000/svg">
<g clip-path="url(#clip0_1398_26072)">
<path d="M22 28C23.6889 28 25.1111 27.4222 26.2667 26.2667C27.4222 25.1111 28 23.6889 28 22C28 20.3111 27.4222 18.8889 26.2667 17.7333C25.1111 16.5778 23.6889 16 22 16C20.3111 16 18.8889 16.5778 17.7333 17.7333C16.5778 18.8889 16 20.3111 16 22C16 23.6889 16.5778 25.1111 17.7333 26.2667C18.8889 27.4222 20.3111 28 22 28ZM34.8667 38.6667L27.8667 31.6667C26.9778 32.2444 26.0338 32.6667 25.0347 32.9333C24.0356 33.2 23.024 33.3333 22 33.3333C18.8444 33.3333 16.1671 32.2338 13.968 30.0347C11.7689 27.8356 10.6684 25.1573 10.6667 22C10.6649 18.8427 11.7653 16.1653 13.968 13.968C16.1707 11.7707 18.848 10.6702 22 10.6667C25.152 10.6631 27.8302 11.7636 30.0347 13.968C32.2391 16.1724 33.3387 18.8498 33.3333 22C33.3333 23.0222 33.1893 24.0338 32.9013 25.0347C32.6133 26.0356 32.1796 26.9796 31.6 27.8667L38.6667 34.9333L34.8667 38.6667ZM5.33333 48C3.86667 48 2.61156 47.4782 1.568 46.4347C0.524445 45.3911 0.00177778 44.1351 0 42.6667V32H5.33333V42.6667H16V48H5.33333ZM32 48V42.6667H42.6667V32H48V42.6667C48 44.1333 47.4782 45.3893 46.4347 46.4347C45.3911 47.48 44.1351 48.0018 42.6667 48H32ZM0 16V5.33333C0 3.86667 0.522667 2.61156 1.568 1.568C2.61333 0.524445 3.86844 0.00177778 5.33333 0H16V5.33333H5.33333V16H0ZM42.6667 16V5.33333H32V0H42.6667C44.1333 0 45.3893 0.522667 46.4347 1.568C47.48 2.61333 48.0018 3.86844 48 5.33333V16H42.6667Z" fill="black"/>
</g>
<defs>
<clipPath id="clip0_1398_26072">
<rect width="48" height="48" fill="white"/>
</clipPath>
</defs>
</svg>

<svg width="48" height="48" fill="none" xmlns="http://www.w3.org/2000/svg"><g clip-path="url(#prefix__clip0_1398_26072)"><path d="M22 28c1.689 0 3.111-.578 4.267-1.733C27.422 25.11 28 23.689 28 22c0-1.689-.578-3.111-1.733-4.267C25.11 16.578 23.689 16 22 16c-1.689 0-3.111.578-4.267 1.733C16.578 18.89 16 20.311 16 22c0 1.689.578 3.111 1.733 4.267C18.89 27.422 20.311 28 22 28zm12.867 10.667l-7-7c-.89.577-1.833 1-2.832 1.266-1 .267-2.011.4-3.035.4-3.156 0-5.833-1.1-8.032-3.298-2.2-2.2-3.3-4.878-3.301-8.035-.002-3.157 1.098-5.835 3.301-8.032 2.203-2.197 4.88-3.298 8.032-3.301 3.152-.004 5.83 1.097 8.035 3.301 2.204 2.204 3.304 4.882 3.298 8.032 0 1.022-.144 2.034-.432 3.035a10.42 10.42 0 01-1.301 2.832l7.067 7.066-3.8 3.734zM5.333 48c-1.466 0-2.721-.522-3.765-1.565C.524 45.39.002 44.135 0 42.667V32h5.333v10.667H16V48H5.333zM32 48v-5.333h10.667V32H48v10.667c0 1.466-.522 2.722-1.565 3.768-1.044 1.045-2.3 1.567-3.768 1.565H32zM0 16V5.333c0-1.466.523-2.721 1.568-3.765S3.868.002 5.333 0H16v5.333H5.333V16H0zm42.667 0V5.333H32V0h10.667c1.466 0 2.722.523 3.768 1.568 1.045 1.045 1.567 2.3 1.565 3.765V16h-5.333z" fill="#000"/></g><defs><clipPath id="prefix__clip0_1398_26072"><path fill="#fff" d="M0 0h48v48H0z"/></clipPath></defs></svg>
